X: 617
T: Grasshopper Sittin' on a Sweet Potato Vine
B: jims roots
M:C|
L:1/8
R: reel
Q: 1/4=100
K:D
V:1 
FG |"D"ABAG FAde|fefe d3A|"G"BdBA GABc|dedB "D"A2 FG|
"D"ABAG FAde|fafe d4|"A"cdcB ABcA |"D"d3 e d2:|
|:cd|"A"edcd e2 fg|"D" aefe d3 A| "G"BdBA GABc|dedB "D"A2cd|
"A"edcd e2 fg| "D"aefe d4|"A"cdcB ABcA | [1"D"d3 e d2:|][2"D"d6x2|]
% abcbook-tune_id 6298c25daf50647aedd628f6


% abcbook-boost 0
% abcbook-tablature 
% abcbook-transpose 
% abcbook-lastupdated 1654178398411
% abcbook-soundfonts 
% abcbook-repeats 1


